assets/icons/share.svg

<svg width="24" height="24" viewBox="0 0 24 24" fill="none" xmlns="http://www.w3.org/2000/svg">
<path fill-rule="evenodd" clip-rule="evenodd" d="M22.8555 3.44542C22.6978 3.16703 22.3962 3 22.0714 3L2.91369 3.01392C2.52859 3.01392 2.19453 3.25055 2.05997 3.60781C1.96254 3.86764 1.98574 4.14603 2.11565 4.37338C2.16669 4.45689 2.23165 4.53577 2.31052 4.60537L9.69243 10.9712L11.4927 20.5338C11.5623 20.9096 11.8499 21.188 12.2304 21.2483C12.6062 21.3086 12.9774 21.1323 13.1723 20.8029L22.8509 4.35018C23.0179 4.06715 23.0179 3.72381 22.8555 3.44542ZM4.21748 4.39194H19.8164L10.4255 9.75089L4.21748 4.39194ZM12.6248 18.9841L11.1122 10.948L20.5171 5.58436L12.6248 18.9841Z" fill="black" stroke="black" stroke-width="0.3"/>
</svg>

<svg xmlns="http://www.w3.org/2000/svg" width="24" height="24" fill="none"><path fill="#000" fill-rule="evenodd" stroke="#000" stroke-width=".3" d="M22.855 3.445A.896.896 0 0 0 22.072 3l-19.157.014a.908.908 0 0 0-.854.594.9.9 0 0 0 .056.765c.05.084.116.163.195.232l7.381 6.366 1.8 9.563c.07.376.358.654.738.714a.923.923 0 0 0 .942-.445L22.851 4.35a.89.89 0 0 0 .005-.905Zm-18.638.947h15.6L10.424 9.75 4.217 4.39Zm8.408 14.592-1.513-8.036 9.405-5.364-7.892 13.4Z" clip-rule="evenodd"/></svg>
